X:1
T:G Major Samuel Holyoke, 1803
T:Isaac Watts, 1717 (Psalm 4, Part 2)                    86. 86. (C. M.)
T:Brackley Transcribed from The Columbian Repository, 1803.
%%score [ ( 1 2 ) 3 4 5 ]
L:1/8
Q:1/4=180
M:3/2
K:G
V:1 treble nm="Tr." snm="Tr."
V:2 treble 
V:3 treble nm="C." snm="C."
V:4 treble-8 nm="T." snm="T."
V:5 bass nm="B." snm="B."
V:1
 B4 G4 B4 | c8 B4 | (c4 B4) A4 | G8 G4 | c8 B4 | A8 G4 | F8 F4 | (G4 F4) G4 | (F3 G A4) G4 | %9
 (A4 G4) F4 | G8 G4 | G8 A4 | G8 F4 | G12 |[M:2/2] z4 G4 | B4 B4 | B4 B4 | B4 ^A4 | B6 A2 | %19
 (G2 A2) (G2 F2) | E4 ^D4 | E8 |: G4 G2 G2 | (G2 F2) (B2 A2) | (G2 F2) (B2 A2) | G6 c2 | %26
 (B2 e2) (d2 c2) | B4 A4 | G8 :|[M:3/2] z8 D4 | G8 A4 | (G4 F4) B4 | A8 G4 | F8 F4 | B8 c4 | %35
 (B4 A4) G4 | F8 A4 | (B3 c d4) F4 | G8 A4 | (B4 A4) A4 | A8 B4 | (B4 c2 B2) (A2 G2) | (A4 G4) F4 | %43
 G12 |[M:2/2] z4 G4 | G4 G4 | G4 A4 | B4 A4 | B4 (B2 A2) | G4 F4 | E4 ^D4 | E8 |: B8 | %53
 (B2 A2) (G2 A2) | B6 B2 | A4 G4 | F6 F2 | (GFGA B2) A2 | G4 TF4 | G8 :| %60
V:2
 x12 | x12 | x12 | x12 | x12 | x12 | x12 | x12 | x12 | x12 | x12 | x12 | x12 | x12 |[M:2/2] x8 | %15
 x8 | x8 | x8 | x8 | x8 | x8 | x8 |: x8 | x4 F4 | x4 F4 | x8 | x8 | x8 | x8 :|[M:3/2] x12 | x12 | %31
 x12 | x12 | x12 | x12 | x12 | x12 | x12 | x12 | x12 | x12 | x12 | x12 | x12 |[M:2/2] x8 | x8 | %46
 x8 | x8 | x8 | x8 | x8 | x8 |: x8 | x8 | x8 | x8 | x8 | x8 | x8 | x8 :| %60
V:3
"^Lord, thou wilt hear me when I pray,   I     am   for   ev  –  er   thine;  I    fear      be – fore          thee   all       the  day,  Nor would I" D4 D4 G4 | %1
 G8 G4 | G8 F4 | G8 D4 | D8 D4 | D8 ^C4 | D8 D4 | D8 D4 | D8 D4 | D8 D4 | D8 D4 | E8 E4 | %12
"^dare to sin.              And while  I   rest  my  weary  head,   From cares and  business  free,    'Tis sweet conversing    on     my" D8 C4 | %13
 B,12 |[M:2/2] z4 E4 | G4 F4 | G4 E4 | F4 F4 | F6 F2 | E4 (D2 C2) | B,4 B,4 | B,8 |: D4 D2 D2 | %23
 D4 D4 | D4 D4 | %25
"^bed,  With my own heart and  thee.          I   pay  this evening  sacrifice:  And when my work  is  done, Great God, my  faith and" D6 F2 | %26
 G6 E2 | D4 C4 | B,8 :|[M:3/2] z8 B,4 | D8 E4 | D8 D4 | E8 E4 | D8 D4 | D8 D4 | D8 ^C4 | D8 F4 | %37
 G8 D4 | (D4 G4) E4 | %39
"^hope    re – lies    Up – on              thy       grace        a  –   lone.            Thus, with my thoughts composed to pray,   I'll      give  mine" D8 ^C4 | %40
 D8 D4 | G8 D4 | (E4 D4) C4 | B,12 |[M:2/2] z4 E4 | E4 E4 | (E2 B,2) C4 | B,4 D4 | D4 F4 | %49
 E4 (D2 C2) | %50
"^eyes  to   sleep;     Thy   hand        in     safe     –    ty  keeps my days,  And will              my slumbers keep." B,4 B,4 | %51
 B,8 |: D8 | D6 F2 | G6 G2 | D4 D4 | D6 D2 | (D2 G4) E2 | D4 C4 | B,8 :| %60
V:4
 d4 B4 d4 | e8 d4 | (e4 d4) c4 | B8 B4 | A8 G4 | F8 E4 | D8 A4 | (B4 A4) B4 | c8 B4 | (c4 B4) A4 | %10
 B8 B4 | c8 c4 | B8 A4 | G12 |[M:2/2] z4 B4 | e4 ^d4 | e4 e4 | d4 ^c4 | B6 B2 | c4 (B2 A2) | %20
 G4 F4 | E8 |: B4 B2 B2 | (B2 A2) (d2 c2) | (B2 A2) (d2 c2) | B6 A2 | (G2 c2) (B2 A2) | G4 F4 | %28
 G8 :|[M:3/2] z8 G4 | B8 c4 | (B4 A4) G4 | c8 B4 | A8 A4 | G8 F4 | (G4 F4) E4 | D8 D4 | G8 A4 | %38
 B8 c4 | d8 e4 | f8 g4 | (d4 e2 d2) (c2 B2) | (c2 A2 B4) A4 | G12 |[M:2/2] z4 B4 | c4 B4 | e4 d4 | %47
 d4 f4 | (g2 d2) (d2 c2) | B4 A4 | G4 F4 | E8 |: G8 | (d2 c2) (B2 c2) | (d2 gf e2) d2 | c4 B4 | %56
 A6 A2 | (BABc d2) c2 | B4 A4 | G8 :| %60
V:5
 G,4 G,4 G,4 | G,8 G,4 | G,8 D,4 | G,,8 G,4 | F,8 G,4 | A,8 A,,4 | D,8 D,4 | D,8 D,4 | %8
 (D,3 E, F,4) G,4 | D,8 D,4 | G,8 =F,4 | E,8 C,4 | D,8 D,4 | G,,12 |[M:2/2] z4 E,4 | E,4 B,,4 | %16
 E,4 G,4 | F,4 F,4 | B,,6 ^D,2 | (E,2 F,2) (G,2 A,2) | B,4 B,,4 | E,8 |: G,4 G,2 G,2 | D,4 D,4 | %24
 D,4 D,4 | G,6 D,2 | (G,,2 A,,2) (B,,2 C,2) | D,4 D,4 | G,,8 :|[M:3/2] z8 G,4 | G,8 C,4 | %31
 D,8 B,,4 | C,8 ^C,4 | D,8 C,4 | B,,8 A,,4 | G,,8 A,,4 | D,8 C,4 | B,,8 D,4 | G,8 G,4 | %39
 G,4 A,4 A,4 | D,8 G,4 | G,8 G,4 | (C,4 D,4) D,4 | G,,12 |[M:2/2] z4 E,4 | E,4 E,4 | E,4 F,4 | %47
 G,4 D,4 | G,4 D,4 | E,4 A,,4 | B,,4 B,,4 | E,8 |: G,8 | G,4 G,4 | G,6 G,2 | F,4 G,4 | D,6 D,2 | %57
 G,6 C,2 | D,4 D,4 | G,,8 :| %60

